src/places/16/folder-public.svg

<svg width="16" height="16" version="1.1" viewBox="0 0 16 16" xmlns="http://www.w3.org/2000/svg">
 <defs>
  <style id="current-color-scheme" type="text/css">.ColorScheme-Text { color:#363636; }</style>
 </defs>
 <path style="fill:currentColor" class="ColorScheme-Text" d="m8 0a8 7.9995 0 0 0-8 7.9995 8 7.9995 0 0 0 3.9375 6.8781 0.55556 0.55552 0 0 0 0.33247 0.11197 0.55556 0.55552 0 0 0 0.55556-0.55552 0.55556 0.55552 0 0 0-0.26562-0.47393 6.8889 6.8885 0 0 1-3.4488-5.9606 6.8889 6.8885 0 0 1 6.8889-6.8885 6.8889 6.8885 0 0 1 6.8889 6.8885 6.8889 6.8885 0 0 1-3.4497 5.9589l0.0017 0.0026a0.55556 0.55552 0 0 0-0.28385 0.48348 0.55556 0.55552 0 0 0 0.55556 0.55552 0.55556 0.55552 0 0 0 0.32552-0.10676 8 7.9995 0 0 0 3.9618-6.8937 8 7.9995 0 0 0-8-7.9995zm0 2.2221a5.7778 5.7774 0 0 0-5.7778 5.7774 5.7778 5.7774 0 0 0 2.8455 4.9685 0.55556 0.55552 0 0 0 0.048611 0.02952 0.55556 0.55552 0 0 0 0.26649 0.06944 0.55556 0.55552 0 0 0 0.55556-0.55552 0.55556 0.55552 0 0 0-0.29948-0.49303 0.55556 0.55552 0 0 0-0.00436-0.0026 4.6667 4.6664 0 0 1-2.3012-4.0162 4.6667 4.6664 0 0 1 4.6667-4.6664 4.6667 4.6664 0 0 1 4.6667 4.6664 4.6667 4.6664 0 0 1-2.3377 4.0371 0.55556 0.55552 0 0 0-0.27865 0.48088 0.55556 0.55552 0 0 0 0.55556 0.55552 0.55556 0.55552 0 0 0 0.27778-0.07552l8.89e-4 0.0017a5.7778 5.7774 0 0 0 2.8932-4.9997 5.7778 5.7774 0 0 0-5.7778-5.7774zm0 2.4443a3.3333 3.3331 0 0 0-3.3333 3.3331 3.3333 3.3331 0 0 0 1.625 2.8566 0.55556 0.55552 0 0 0 0.033853 0.01996 0.55556 0.55552 0 0 0 0.011285 0.0069 0.55556 0.55552 0 0 0 0.26302 0.06597 0.55556 0.55552 0 0 0 0.55556-0.55548 0.55556 0.55552 0 0 0-0.28385-0.48348 2.2222 2.2221 0 0 1-1.0938-1.9105 2.2222 2.2221 0 0 1 2.2222-2.2221 2.2222 2.2221 0 0 1 2.2222 2.2221 2.2222 2.2221 0 0 1-1.1137 1.9226l8.89e-4 8.89e-4a0.55556 0.55552 0 0 0-0.2691 0.47567 0.55556 0.55552 0 0 0 0.55556 0.55552 0.55556 0.55552 0 0 0 0.26823-0.06944 3.3333 3.3331 0 0 0 0.00781-0.0052 0.55556 0.55552 0 0 0 0.045139-0.02864 3.3333 3.3331 0 0 0 1.6163-2.8514 3.3333 3.3331 0 0 0-3.3333-3.3331zm0 2.4443a0.88889 0.88884 0 0 0-0.88889 0.88884 0.88889 0.88884 0 0 0 0.88889 0.88884 0.88889 0.88884 0 0 0 0.88889-0.88884 0.88889 0.88884 0 0 0-0.88889-0.88884z" />
</svg>

<svg xmlns="http://www.w3.org/2000/svg" width="16" height="16">
    <path d="M8 0a8 8 0 0 0-8 8 8 8 0 0 0 3.938 6.878.556.556 0 0 0 .332.112.556.556 0 0 0 .556-.556.556.556 0 0 0-.266-.474A6.889 6.889 0 0 1 1.11 8 6.889 6.889 0 0 1 8 1.11 6.889 6.889 0 0 1 14.889 8a6.889 6.889 0 0 1-3.45 5.958l.002.003a.556.556 0 0 0-.284.483.556.556 0 0 0 .556.556.556.556 0 0 0 .325-.107A8 8 0 0 0 16 8a8 8 0 0 0-8-8zm0 2.222A5.778 5.777 0 0 0 2.222 8a5.778 5.777 0 0 0 2.846 4.968.556.556 0 0 0 .048.03.556.556 0 0 0 .267.069.556.556 0 0 0 .555-.556.556.556 0 0 0-.3-.493.556.556 0 0 0-.003-.002A4.667 4.666 0 0 1 3.333 8 4.667 4.666 0 0 1 8 3.333 4.667 4.666 0 0 1 12.667 8a4.667 4.666 0 0 1-2.338 4.037.556.556 0 0 0-.279.48.556.556 0 0 0 .556.556.556.556 0 0 0 .278-.075v.001a5.778 5.777 0 0 0 2.894-5A5.778 5.777 0 0 0 8 2.223zm0 2.444A3.333 3.333 0 0 0 4.667 8a3.333 3.333 0 0 0 1.625 2.856.556.556 0 0 0 .034.02.556.556 0 0 0 .01.007.556.556 0 0 0 .264.066.556.556 0 0 0 .555-.556.556.556 0 0 0-.283-.483A2.222 2.222 0 0 1 5.778 8 2.222 2.222 0 0 1 8 5.776 2.222 2.222 0 0 1 10.222 8a2.222 2.222 0 0 1-1.114 1.923l.001.001a.556.556 0 0 0-.269.476.556.556 0 0 0 .556.555.556.556 0 0 0 .268-.07 3.333 3.333 0 0 0 .008-.004.556.556 0 0 0 .045-.03A3.333 3.333 0 0 0 11.333 8 3.333 3.333 0 0 0 8 4.665zm0 2.445A.889.889 0 0 0 7.111 8 .889.889 0 0 0 8 8.888.889.889 0 0 0 8.889 8 .889.889 0 0 0 8 7.11z" style="fill:currentColor;color:#050505;opacity:.7"/>
</svg>
